MA3T1/102/aimg/crucigrama.svg

<svg clip-rule="evenodd" fill-rule="evenodd" stroke-miterlimit="10" viewBox="0 0 802 798" xmlns="http://www.w3.org/2000/svg"><path d="m273.698 172.527h22.677v22.677h-22.677zm-22.677 22.677h22.677v22.677h-22.677zm22.677 0h22.677v22.677h-22.677zm22.677 22.677h22.677v22.677h-22.677zm0 22.677h22.677v22.677h-22.677zm22.677 22.677h22.677v22.677h-22.677zm22.677 0h22.677v22.677h-22.677zm-45.354 22.677h22.677v22.677h-22.677zm22.677 0h22.677v22.677h-22.677zm45.355 0h22.677v22.677h-22.677zm-22.678 22.678h22.677v22.677h-22.677zm22.678 0h22.677v22.677h-22.677zm45.354 0h22.677v22.677h-22.677zm-22.677 22.677h22.677v22.677h-22.677zm22.677 0h22.677v22.677h-22.677z" fill="#fff" fill-rule="nonzero" transform="matrix(4.16667 0 0 4.16667 -1022.9 -697.92337039)"/><path d="m400.97197243 493.37758265h94.48757559v94.48757559h-94.48757559z" fill="#231f20" stroke-width="4.16667"/><g fill="none" stroke="#231f20"><path d="m0 0h23.677" transform="matrix(4.16667 0 0 4.16667 115.42591066 20.93553803)"/><path d="m-10.839 10.839h21.678" transform="matrix(0 -4.16667 -4.16667 0 162.66761512 68.18140916)"/><path d="m-10.839 10.839h21.678" transform="matrix(0 -4.16667 -4.16667 0 257.15935738 68.18140916)"/><path d="m0 0h23.177" transform="matrix(4.16667 0 0 4.16667 20.93833507 115.42728029)"/><path d="m-10.839 10.839h21.678" transform="matrix(0 -4.16667 -4.16667 0 68.18003953 162.66898475)"/><path d="m0 0h23.177" transform="matrix(4.16667 0 0 4.16667 117.50924566 115.42728029)"/><path d="m-10.839 10.839h21.678" transform="matrix(0 -4.16667 -4.16667 0 162.66761512 162.66898475)"/><path d="m-10.839 10.839h21.678" transform="matrix(0 -4.16667 -4.16667 0 257.15935738 162.66898475)"/><path d="m0 0h23.177" transform="matrix(4.16667 0 0 4.16667 20.93833507 209.91485588)"/><path d="m0 0h22.677" transform="matrix(4.16667 0 0 4.16667 117.50924566 209.91485588)"/><path d="m0 0h23.177" transform="matrix(4.16667 0 0 4.16667 211.99682125 209.91485588)"/><path d="m-10.839 10.839h21.678" transform="matrix(0 -4.16667 -4.16667 0 257.15935738 257.15656034)"/><path d="m-10.839 10.839h21.678" transform="matrix(0 -4.16667 -4.16667 0 351.64693297 257.15656034)"/><path d="m0 0h23.677" transform="matrix(4.16667 0 0 4.16667 209.91348625 304.40243147)"/><path d="m-10.839 10.839h21.678" transform="matrix(0 -4.16667 -4.16667 0 257.15935738 351.6483026)"/><path d="m-10.839 10.839h21.678" transform="matrix(0 -4.16667 -4.16667 0 351.64693297 351.6483026)"/><path d="m0 0h23.177" transform="matrix(4.16667 0 0 4.16667 209.91348625 398.89000706)"/><path d="m0 0h22.677" transform="matrix(4.16667 0 0 4.16667 306.48439684 398.89000706)"/><path d="m-10.839 10.839h21.678" transform="matrix(0 -4.16667 -4.16667 0 351.64693297 446.13587819)"/><path d="m0 0h23.177" transform="matrix(4.16667 0 0 4.16667 400.97197243 398.89000706)"/><path d="m-10.839 10.839h21.678" transform="matrix(0 -4.16667 -4.16667 0 446.13450856 446.13587819)"/><path d="m-10.839 10.839h21.678" transform="matrix(0 -4.16667 -4.16667 0 540.62208415 446.13587819)"/><path d="m-10.839 10.839h21.678" transform="matrix(0 -4.16667 -4.16667 0 257.15935738 540.62345378)"/><path d="m0 0h22.677" transform="matrix(4.16667 0 0 4.16667 306.48439684 493.37758265)"/><path d="m-10.839 10.839h21.678" transform="matrix(0 -4.16667 -4.16667 0 351.64693297 540.62345378)"/><path d="m0 0h22.677" transform="matrix(4.16667 0 0 4.16667 400.97197243 493.37758265)"/><path d="m-10.839 10.839h21.678" transform="matrix(0 -4.16667 -4.16667 0 446.13450856 540.62345378)"/><path d="m0 0h23.177" transform="matrix(4.16667 0 0 4.16667 495.46371469 493.37758265)"/><path d="m-10.839 10.839h21.678" transform="matrix(0 -4.16667 -4.16667 0 540.62208415 540.62345378)"/><path d="m-10.839 10.839h21.678" transform="matrix(0 -4.16667 -4.16667 0 635.10965974 540.62345378)"/><path d="m0 0h23.177" transform="matrix(4.16667 0 0 4.16667 209.91348625 587.86515824)"/><path d="m0 0h22.677" transform="matrix(4.16667 0 0 4.16667 306.48439684 587.86515824)"/><path d="m0 0h22.677" transform="matrix(4.16667 0 0 4.16667 400.97197243 587.86515824)"/><path d="m-10.839 10.839h21.678" transform="matrix(0 -4.16667 -4.16667 0 446.13450856 635.11102937)"/><path d="m0 0h23.177" transform="matrix(4.16667 0 0 4.16667 495.46371469 587.86515824)"/><path d="m-10.839 10.839h21.678" transform="matrix(0 -4.16667 -4.16667 0 540.62208415 635.11102937)"/><path d="m-10.839 10.839h21.678" transform="matrix(0 -4.16667 -4.16667 0 635.10965974 635.11102937)"/><path d="m0 0h23.677" transform="matrix(4.16667 0 0 4.16667 682.35553087 587.86515824)"/><path d="m-10.839 10.839h21.678" transform="matrix(0 -4.16667 -4.16667 0 729.59723533 635.11102937)"/><path d="m-10.839 10.839h21.678" transform="matrix(0 -4.16667 -4.16667 0 824.08897759 635.11102937)"/><path d="m0 0h23.177" transform="matrix(4.16667 0 0 4.16667 398.88863743 682.3569005)"/><path d="m0 0h22.677" transform="matrix(4.16667 0 0 4.16667 495.46371469 682.3569005)"/><path d="m0 0h22.677" transform="matrix(4.16667 0 0 4.16667 589.95129028 682.3569005)"/><path d="m-10.839 10.839h21.678" transform="matrix(0 -4.16667 -4.16667 0 635.10965974 729.59860496)"/><path d="m0 0h23.177" transform="matrix(4.16667 0 0 4.16667 684.43886587 682.3569005)"/><path d="m-10.839 10.839h21.678" transform="matrix(0 -4.16667 -4.16667 0 729.59723533 729.59860496)"/><path d="m-10.839 10.839h21.678" transform="matrix(0 -4.16667 -4.16667 0 824.08897759 729.59860496)"/><path d="m0 0h23.177" transform="matrix(4.16667 0 0 4.16667 587.86795528 776.84447609)"/><path d="m0 0h23.177" transform="matrix(4.16667 0 0 4.16667 684.43886587 776.84447609)"/><path d="m0 0h23.177" transform="matrix(4.16667 0 0 4.16667 209.91348625 493.37758265)"/></g></svg>

<?xml version="1.0" encoding="UTF-8" standalone="no"?>
<!DOCTYPE svg PUBLIC "-//W3C//DTD SVG 1.1//EN" "http://www.w3.org/Graphics/SVG/1.1/DTD/svg11.dtd">
<svg width="100%" height="100%" viewBox="0 0 802 798" version="1.1" xmlns="http://www.w3.org/2000/svg" xmlns:xlink="http://www.w3.org/1999/xlink" xml:space="preserve" xmlns:serif="http://www.serif.com/" style="fill-rule:evenodd;clip-rule:evenodd;stroke-miterlimit:10;">
    <g transform="matrix(1,0,0,1,-14642.5,-1693.27)">
        <g transform="matrix(4.16667,0,0,4.16667,13619.6,0)">
            <g transform="matrix(1,0,0,1,0,238.883)">
                <path d="M273.698,172.527L296.375,172.527L296.375,195.204L273.698,195.204L273.698,172.527ZM251.021,195.204L273.698,195.204L273.698,217.881L251.021,217.881L251.021,195.204ZM273.698,195.204L296.375,195.204L296.375,217.881L273.698,217.881L273.698,195.204ZM296.375,217.881L319.052,217.881L319.052,240.558L296.375,240.558L296.375,217.881ZM296.375,240.558L319.052,240.558L319.052,263.235L296.375,263.235L296.375,240.558ZM319.052,263.235L341.729,263.235L341.729,285.912L319.052,285.912L319.052,263.235ZM341.729,263.235L364.406,263.235L364.406,285.912L341.729,285.912L341.729,263.235ZM296.375,285.912L319.052,285.912L319.052,308.589L296.375,308.589L296.375,285.912ZM319.052,285.912L341.729,285.912L341.729,308.589L319.052,308.589L319.052,285.912ZM364.407,285.912L387.084,285.912L387.084,308.589L364.407,308.589L364.407,285.912ZM341.729,308.59L364.406,308.59L364.406,331.267L341.729,331.267L341.729,308.59ZM364.407,308.59L387.084,308.59L387.084,331.267L364.407,331.267L364.407,308.59ZM409.761,308.59L432.438,308.59L432.438,331.267L409.761,331.267L409.761,308.59ZM387.084,331.267L409.761,331.267L409.761,353.944L387.084,353.944L387.084,331.267ZM409.761,331.267L432.438,331.267L432.438,353.944L409.761,353.944L409.761,331.267Z" style="fill:white;fill-rule:nonzero;"/>
            </g>
        </g>
        <g transform="matrix(4.16667,0,0,4.16667,13619.6,0)">
            <g transform="matrix(1,0,0,1,0,306.913)">
                <rect x="341.729" y="217.882" width="22.677" height="22.677" style="fill:rgb(35,31,32);"/>
            </g>
        </g>
        <g transform="matrix(4.16667,0,0,4.16667,13619.6,0)">
            <g transform="matrix(1,0,0,1,273.198,411.409)">
                <path d="M0,0L23.677,0" style="fill:none;fill-rule:nonzero;stroke:rgb(35,31,32);stroke-width:1px;"/>
            </g>
        </g>
        <g transform="matrix(4.16667,0,0,4.16667,13619.6,0)">
            <g transform="matrix(0,-1,-1,0,284.536,422.748)">
                <path d="M-10.839,10.839L10.839,10.839" style="fill:none;fill-rule:nonzero;stroke:rgb(35,31,32);stroke-width:1px;"/>
            </g>
        </g>
        <g transform="matrix(4.16667,0,0,4.16667,13619.6,0)">
            <g transform="matrix(0,-1,-1,0,307.214,422.748)">
                <path d="M-10.839,10.839L10.839,10.839" style="fill:none;fill-rule:nonzero;stroke:rgb(35,31,32);stroke-width:1px;"/>
            </g>
        </g>
        <g transform="matrix(4.16667,0,0,4.16667,13619.6,0)">
            <g transform="matrix(1,0,0,1,250.521,434.087)">
                <path d="M0,0L23.177,0" style="fill:none;fill-rule:nonzero;stroke:rgb(35,31,32);stroke-width:1px;"/>
            </g>
        </g>
        <g transform="matrix(4.16667,0,0,4.16667,13619.6,0)">
            <g transform="matrix(0,-1,-1,0,261.859,445.425)">
                <path d="M-10.839,10.839L10.839,10.839" style="fill:none;fill-rule:nonzero;stroke:rgb(35,31,32);stroke-width:1px;"/>
            </g>
        </g>
        <g transform="matrix(4.16667,0,0,4.16667,13619.6,0)">
            <g transform="matrix(1,0,0,1,273.698,434.087)">
                <path d="M0,0L23.177,0" style="fill:none;fill-rule:nonzero;stroke:rgb(35,31,32);stroke-width:1px;"/>
            </g>
        </g>
        <g transform="matrix(4.16667,0,0,4.16667,13619.6,0)">
            <g transform="matrix(0,-1,-1,0,284.536,445.425)">
                <path d="M-10.839,10.839L10.839,10.839" style="fill:none;fill-rule:nonzero;stroke:rgb(35,31,32);stroke-width:1px;"/>
            </g>
        </g>
        <g transform="matrix(4.16667,0,0,4.16667,13619.6,0)">
            <g transform="matrix(0,-1,-1,0,307.214,445.425)">
                <path d="M-10.839,10.839L10.839,10.839" style="fill:none;fill-rule:nonzero;stroke:rgb(35,31,32);stroke-width:1px;"/>
            </g>
        </g>
        <g transform="matrix(4.16667,0,0,4.16667,13619.6,0)">
            <g transform="matrix(1,0,0,1,250.521,456.764)">
                <path d="M0,0L23.177,0" style="fill:none;fill-rule:nonzero;stroke:rgb(35,31,32);stroke-width:1px;"/>
            </g>
        </g>
        <g transform="matrix(4.16667,0,0,4.16667,13619.6,0)">
            <g transform="matrix(1,0,0,1,273.698,456.764)">
                <path d="M0,0L22.677,0" style="fill:none;fill-rule:nonzero;stroke:rgb(35,31,32);stroke-width:1px;"/>
            </g>
        </g>
        <g transform="matrix(4.16667,0,0,4.16667,13619.6,0)">
            <g transform="matrix(1,0,0,1,296.375,456.764)">
                <path d="M0,0L23.177,0" style="fill:none;fill-rule:nonzero;stroke:rgb(35,31,32);stroke-width:1px;"/>
            </g>
        </g>
        <g transform="matrix(4.16667,0,0,4.16667,13619.6,0)">
            <g transform="matrix(0,-1,-1,0,307.214,468.102)">
                <path d="M-10.839,10.839L10.839,10.839" style="fill:none;fill-rule:nonzero;stroke:rgb(35,31,32);stroke-width:1px;"/>
            </g>
        </g>
        <g transform="matrix(4.16667,0,0,4.16667,13619.6,0)">
            <g transform="matrix(0,-1,-1,0,329.891,468.102)">
                <path d="M-10.839,10.839L10.839,10.839" style="fill:none;fill-rule:nonzero;stroke:rgb(35,31,32);stroke-width:1px;"/>
            </g>
        </g>
        <g transform="matrix(4.16667,0,0,4.16667,13619.6,0)">
            <g transform="matrix(1,0,0,1,295.875,479.441)">
                <path d="M0,0L23.677,0" style="fill:none;fill-rule:nonzero;stroke:rgb(35,31,32);stroke-width:1px;"/>
            </g>
        </g>
        <g transform="matrix(4.16667,0,0,4.16667,13619.6,0)">
            <g transform="matrix(0,-1,-1,0,307.214,490.78)">
                <path d="M-10.839,10.839L10.839,10.839" style="fill:none;fill-rule:nonzero;stroke:rgb(35,31,32);stroke-width:1px;"/>
            </g>
        </g>
        <g transform="matrix(4.16667,0,0,4.16667,13619.6,0)">
            <g transform="matrix(0,-1,-1,0,329.891,490.78)">
                <path d="M-10.839,10.839L10.839,10.839" style="fill:none;fill-rule:nonzero;stroke:rgb(35,31,32);stroke-width:1px;"/>
            </g>
        </g>
        <g transform="matrix(4.16667,0,0,4.16667,13619.6,0)">
            <g transform="matrix(1,0,0,1,295.875,502.118)">
                <path d="M0,0L23.177,0" style="fill:none;fill-rule:nonzero;stroke:rgb(35,31,32);stroke-width:1px;"/>
            </g>
        </g>
        <g transform="matrix(4.16667,0,0,4.16667,13619.6,0)">
            <g transform="matrix(1,0,0,1,319.052,502.118)">
                <path d="M0,0L22.677,0" style="fill:none;fill-rule:nonzero;stroke:rgb(35,31,32);stroke-width:1px;"/>
            </g>
        </g>
        <g transform="matrix(4.16667,0,0,4.16667,13619.6,0)">
            <g transform="matrix(0,-1,-1,0,329.891,513.457)">
                <path d="M-10.839,10.839L10.839,10.839" style="fill:none;fill-rule:nonzero;stroke:rgb(35,31,32);stroke-width:1px;"/>
            </g>
        </g>
        <g transform="matrix(4.16667,0,0,4.16667,13619.6,0)">
            <g transform="matrix(1,0,0,1,341.729,502.118)">
                <path d="M0,0L23.177,0" style="fill:none;fill-rule:nonzero;stroke:rgb(35,31,32);stroke-width:1px;"/>
            </g>
        </g>
        <g transform="matrix(4.16667,0,0,4.16667,13619.6,0)">
            <g transform="matrix(0,-1,-1,0,352.568,513.457)">
                <path d="M-10.839,10.839L10.839,10.839" style="fill:none;fill-rule:nonzero;stroke:rgb(35,31,32);stroke-width:1px;"/>
            </g>
        </g>
        <g transform="matrix(4.16667,0,0,4.16667,13619.6,0)">
            <g transform="matrix(0,-1,-1,0,375.245,513.457)">
                <path d="M-10.839,10.839L10.839,10.839" style="fill:none;fill-rule:nonzero;stroke:rgb(35,31,32);stroke-width:1px;"/>
            </g>
        </g>
        <g transform="matrix(4.16667,0,0,4.16667,13619.6,0)">
            <g transform="matrix(0,-1,-1,0,307.214,536.134)">
                <path d="M-10.839,10.839L10.839,10.839" style="fill:none;fill-rule:nonzero;stroke:rgb(35,31,32);stroke-width:1px;"/>
            </g>
        </g>
        <g transform="matrix(4.16667,0,0,4.16667,13619.6,0)">
            <g transform="matrix(1,0,0,1,319.052,524.795)">
                <path d="M0,0L22.677,0" style="fill:none;fill-rule:nonzero;stroke:rgb(35,31,32);stroke-width:1px;"/>
            </g>
        </g>
        <g transform="matrix(4.16667,0,0,4.16667,13619.6,0)">
            <g transform="matrix(0,-1,-1,0,329.891,536.134)">
                <path d="M-10.839,10.839L10.839,10.839" style="fill:none;fill-rule:nonzero;stroke:rgb(35,31,32);stroke-width:1px;"/>
            </g>
        </g>
        <g transform="matrix(4.16667,0,0,4.16667,13619.6,0)">
            <g transform="matrix(1,0,0,1,341.729,524.795)">
                <path d="M0,0L22.677,0" style="fill:none;fill-rule:nonzero;stroke:rgb(35,31,32);stroke-width:1px;"/>
            </g>
        </g>
        <g transform="matrix(4.16667,0,0,4.16667,13619.6,0)">
            <g transform="matrix(0,-1,-1,0,352.568,536.134)">
                <path d="M-10.839,10.839L10.839,10.839" style="fill:none;fill-rule:nonzero;stroke:rgb(35,31,32);stroke-width:1px;"/>
            </g>
        </g>
        <g transform="matrix(4.16667,0,0,4.16667,13619.6,0)">
            <g transform="matrix(1,0,0,1,364.407,524.795)">
                <path d="M0,0L23.177,0" style="fill:none;fill-rule:nonzero;stroke:rgb(35,31,32);stroke-width:1px;"/>
            </g>
        </g>
        <g transform="matrix(4.16667,0,0,4.16667,13619.6,0)">
            <g transform="matrix(0,-1,-1,0,375.245,536.134)">
                <path d="M-10.839,10.839L10.839,10.839" style="fill:none;fill-rule:nonzero;stroke:rgb(35,31,32);stroke-width:1px;"/>
            </g>
        </g>
        <g transform="matrix(4.16667,0,0,4.16667,13619.6,0)">
            <g transform="matrix(0,-1,-1,0,397.922,536.134)">
                <path d="M-10.839,10.839L10.839,10.839" style="fill:none;fill-rule:nonzero;stroke:rgb(35,31,32);stroke-width:1px;"/>
            </g>
        </g>
        <g transform="matrix(4.16667,0,0,4.16667,13619.6,0)">
            <g transform="matrix(1,0,0,1,295.875,547.472)">
                <path d="M0,0L23.177,0" style="fill:none;fill-rule:nonzero;stroke:rgb(35,31,32);stroke-width:1px;"/>
            </g>
        </g>
        <g transform="matrix(4.16667,0,0,4.16667,13619.6,0)">
            <g transform="matrix(1,0,0,1,319.052,547.472)">
                <path d="M0,0L22.677,0" style="fill:none;fill-rule:nonzero;stroke:rgb(35,31,32);stroke-width:1px;"/>
            </g>
        </g>
        <g transform="matrix(4.16667,0,0,4.16667,13619.6,0)">
            <g transform="matrix(1,0,0,1,341.729,547.472)">
                <path d="M0,0L22.677,0" style="fill:none;fill-rule:nonzero;stroke:rgb(35,31,32);stroke-width:1px;"/>
            </g>
        </g>
        <g transform="matrix(4.16667,0,0,4.16667,13619.6,0)">
            <g transform="matrix(0,-1,-1,0,352.568,558.811)">
                <path d="M-10.839,10.839L10.839,10.839" style="fill:none;fill-rule:nonzero;stroke:rgb(35,31,32);stroke-width:1px;"/>
            </g>
        </g>
        <g transform="matrix(4.16667,0,0,4.16667,13619.6,0)">
            <g transform="matrix(1,0,0,1,364.407,547.472)">
                <path d="M0,0L23.177,0" style="fill:none;fill-rule:nonzero;stroke:rgb(35,31,32);stroke-width:1px;"/>
            </g>
        </g>
        <g transform="matrix(4.16667,0,0,4.16667,13619.6,0)">
            <g transform="matrix(0,-1,-1,0,375.245,558.811)">
                <path d="M-10.839,10.839L10.839,10.839" style="fill:none;fill-rule:nonzero;stroke:rgb(35,31,32);stroke-width:1px;"/>
            </g>
        </g>
        <g transform="matrix(4.16667,0,0,4.16667,13619.6,0)">
            <g transform="matrix(0,-1,-1,0,397.922,558.811)">
                <path d="M-10.839,10.839L10.839,10.839" style="fill:none;fill-rule:nonzero;stroke:rgb(35,31,32);stroke-width:1px;"/>
            </g>
        </g>
        <g transform="matrix(4.16667,0,0,4.16667,13619.6,0)">
            <g transform="matrix(1,0,0,1,409.261,547.472)">
                <path d="M0,0L23.677,0" style="fill:none;fill-rule:nonzero;stroke:rgb(35,31,32);stroke-width:1px;"/>
            </g>
        </g>
        <g transform="matrix(4.16667,0,0,4.16667,13619.6,0)">
            <g transform="matrix(0,-1,-1,0,420.599,558.811)">
                <path d="M-10.839,10.839L10.839,10.839" style="fill:none;fill-rule:nonzero;stroke:rgb(35,31,32);stroke-width:1px;"/>
            </g>
        </g>
        <g transform="matrix(4.16667,0,0,4.16667,13619.6,0)">
            <g transform="matrix(0,-1,-1,0,443.277,558.811)">
                <path d="M-10.839,10.839L10.839,10.839" style="fill:none;fill-rule:nonzero;stroke:rgb(35,31,32);stroke-width:1px;"/>
            </g>
        </g>
        <g transform="matrix(4.16667,0,0,4.16667,13619.6,0)">
            <g transform="matrix(1,0,0,1,341.229,570.15)">
                <path d="M0,0L23.177,0" style="fill:none;fill-rule:nonzero;stroke:rgb(35,31,32);stroke-width:1px;"/>
            </g>
        </g>
        <g transform="matrix(4.16667,0,0,4.16667,13619.6,0)">
            <g transform="matrix(1,0,0,1,364.407,570.15)">
                <path d="M0,0L22.677,0" style="fill:none;fill-rule:nonzero;stroke:rgb(35,31,32);stroke-width:1px;"/>
            </g>
        </g>
        <g transform="matrix(4.16667,0,0,4.16667,13619.6,0)">
            <g transform="matrix(1,0,0,1,387.084,570.15)">
                <path d="M0,0L22.677,0" style="fill:none;fill-rule:nonzero;stroke:rgb(35,31,32);stroke-width:1px;"/>
            </g>
        </g>
        <g transform="matrix(4.16667,0,0,4.16667,13619.6,0)">
            <g transform="matrix(0,-1,-1,0,397.922,581.488)">
                <path d="M-10.839,10.839L10.839,10.839" style="fill:none;fill-rule:nonzero;stroke:rgb(35,31,32);stroke-width:1px;"/>
            </g>
        </g>
        <g transform="matrix(4.16667,0,0,4.16667,13619.6,0)">
            <g transform="matrix(1,0,0,1,409.761,570.15)">
                <path d="M0,0L23.177,0" style="fill:none;fill-rule:nonzero;stroke:rgb(35,31,32);stroke-width:1px;"/>
            </g>
        </g>
        <g transform="matrix(4.16667,0,0,4.16667,13619.6,0)">
            <g transform="matrix(0,-1,-1,0,420.599,581.488)">
                <path d="M-10.839,10.839L10.839,10.839" style="fill:none;fill-rule:nonzero;stroke:rgb(35,31,32);stroke-width:1px;"/>
            </g>
        </g>
        <g transform="matrix(4.16667,0,0,4.16667,13619.6,0)">
            <g transform="matrix(0,-1,-1,0,443.277,581.488)">
                <path d="M-10.839,10.839L10.839,10.839" style="fill:none;fill-rule:nonzero;stroke:rgb(35,31,32);stroke-width:1px;"/>
            </g>
        </g>
        <g transform="matrix(4.16667,0,0,4.16667,13619.6,0)">
            <g transform="matrix(1,0,0,1,386.584,592.827)">
                <path d="M0,0L23.177,0" style="fill:none;fill-rule:nonzero;stroke:rgb(35,31,32);stroke-width:1px;"/>
            </g>
        </g>
        <g transform="matrix(4.16667,0,0,4.16667,13619.6,0)">
            <g transform="matrix(1,0,0,1,409.761,592.827)">
                <path d="M0,0L23.177,0" style="fill:none;fill-rule:nonzero;stroke:rgb(35,31,32);stroke-width:1px;"/>
            </g>
        </g>
        <g transform="matrix(4.16667,0,0,4.16667,13619.6,0)">
            <g transform="matrix(1,0,0,1,295.875,524.795)">
                <path d="M0,0L23.177,0" style="fill:none;fill-rule:nonzero;stroke:rgb(35,31,32);stroke-width:1px;"/>
            </g>
        </g>
    </g>
</svg>
